X:1
T:Cumberland Nelly
Q:1/4=120
S: Greg Stephens Collection
M:2/4
L:1/16
K:G
B2|A3G A2BA|G2E2 E2GE|D2G2 G3A|Bcd2 d2ef|
g2gf efge|d2B2 A2GA|B2e2 BeBA|G2E2 E2:|
|:ef|g2gf efge|d2B2 B2GA|B2e2 edef|g2e2 e3f|
g2gf efge|d2B2 A2GA|B2e2 BeBA|G2E2 E2:|
%%vskip .5cm
